!!!!SEGMENT: pl-wtm--1813-fp-6225_stojowski-zygmunt--legende-op-8-no-1.krn
!!!cenid: 18xx:4448
!!!COM: Stojowski, Zygmunt
!!!COM-rismID: pe41019736
!!!CDT: 1870-1946
!!!CNT: Polish
!!!OTL: Légende Op. 8 No. 1
!!!PDT: 1891
!!!AGN:
!!!YEC: Copyright 2022 Narodowy Instytut Fryderyka Chopina (https://polishscores.org)
!!!YEM: License CC-BY-4.0 (https://creativecommons.org/licenses/by/4.0)
!!!SMS-siglum: PL-Wtm
!!!SMS-shelfmark: 1813 fp 6225
!!!SMS-variant:
!!!SMS-altvar:
!!!SMS-shelfwork: W
!!!NIFC-rismSourceID: 1001213457
!!!NIFC-rismChildID: 1001213457
!!!NIFC-islandoraID: pl-wtm:86711
!!!URL-pdf-islandora: https://repozytorium.nifc.pl/islandora/object/pl-wtm%3A86711/datastream/PDF/view
!!!URL-scan: https://polish.musicsources.pl/pl/lokalizacje/galeria/druki-muzyczne/18996/2 @EN{Scan on Polish Music Sources Website} @PL{Skany w portalu Dziedzictwo Muzyki Polskiej w otwartym dostępie}
!!!IIIF:
!!!ONB-nifc:
!!!AIN: 1 piano
!!!key: A
**kern	**kern	**dynam
*part1	*part1	*part1
*staff2	*staff1	*staff1/2
*group1	*group1	*
*ICklav	*ICklav	*
*Ipiano	*Ipiano	*
*I"PIANO.	*I"PIANO.	*
*I'	*I'	*
*clefF4	*clefG2	*
*k[f#c#g#]	*k[f#c#g#]	*
*A:	*A:	*
*M2/4	*M2/4	*
=1	=1	=1
!!LO:TX:a:B:t=Andantino con moto.
8AAA/	8r	p
!	!LO:TX:b:i:t=dolce e molto cantabile	!
4c# 4E\	(8ccc#\L	.
.	8bb\	.
8c# 8E\	[8aa\J	.
=2	=2	=2
*^	*	*
4BB/	8BB\L	8aa\L]	.
.	8d 8E\	[8gg#\J	.
!	!	!LO:TUP:b:problem:klamra łukowa	!LO:HP:a
4D/	8D\	12gg#\L]	>
.	.	12ff#\	.
.	8eJ 8G#\	.	.
.	.	12ee\J	]
=3	=3	=3	=3
8C#/	8ryy	8aa\)	.
[4.e [4.A/	(4A\	8r	.
.	.	(>[4a/	.
.	8G#\	.	.
=4	=4	=4	=4
*	*	*^	*
8e]L 8A/]	4F#\	4a/]	[2a\	.
8e 8A/	.	.	.	.
8r	4Fn\	4b/	.	.
8d#XJ 8A/	.	.	.	.
=5	=5	=5	=5	=5
8rB	4.E\	8cc#/)	8a\]	.
[4.e [4.A/	.	8r	8ryy	.
.	.	([4f#/	4ryy	.
.	8D#X\)	.	.	.
*	*	*v	*v	*
!!LO:LB:g=original
=6	=6	=6	=6
8e] 8A/]	2Dn\	4f#/]	.
4e 4A/	.	.	.
.	.	4g#/)	.
8e 8G#/	.	.	.
=7	=7	=7	=7
*	*	*^	*
!	!	!LO:TX:a:i:t=espr.	!	!
8rB	2C#\	(8a/L	(8a\L	.
4e 4A/	.	8cc#/J	8g#\	.
.	.	[4ee:/	8f#:\	.
8A/	.	.	8e\J	.
=8	=8	=8	=8	=8
8BB/L	4BB\	4ee/]	8d\L	.
8A 8F#/	.	.	8e\	.
8EE/	4EE\	4dd/)	8f#\	.
8eJ 8E/	.	.	8g#\J)	.
=9	=9	=9	=9	=9
!	!	!	!	!LO:HP:a
8rA	2AA\	(8cc#/L	(8a\L	<
4c# 4E/	.	8ee/J	8g#\	.
.	.	[4gg#/	8f#\	.
8c# 8E/	.	.	8e\J	[[
=10	=10	=10	=10	=10
!	!	!	!	!LO:HP:a
4BB/	8BB\L	4gg#/]	8d\L	>
.	8d 8E\	.	8e\	.
4D/	8D\	4ff#/	8f#\	.
.	8eJ 8G#\	.	8g#\J	.
=11	=11	=11	=11	=11
8rB	2C#\	8ee/)	8a\)	]
4e 4A/	.	8r	8ryy	.
.	.	([4ccc#\	4ryy	.
8e 8A/	.	.	.	.
*	*	*v	*v	*
!!LO:LB:g=original
=12	=12	=12	=12
8rB	2C#\	4ccc#\]	.
4e#X 4A/	.	.	.
.	.	[4bb\	.
8e# 8A/	.	.	.
=13	=13	=13	=13
8rB	2D\	8bb\])	<
(<4f# 4A/	.	(4aa\	.
8f# 8A#X/)	.	[8gg#\	[
=14	=14	=14	=14
8rB	2D\	8gg#\L]	.
!!LO:TX:a:i:t=slentando
(4f# 4B/	.	8ff#\	>
.	.	8ee\	.
8f##X 8B/)	.	8dd\J)	]
=15	=15	=15	=15
*	*	*^	*
!	!	!	!	!LO:HP:a
8rB	2D\	(4cc#:/	(8g#:\L	>
(4e/	.	.	8a\)	.
.	.	[4b/)	(8f#~\	]
8B/)	.	.	8g#~\J)	.
=16	=16	=16	=16	=16
!!LO:TX:a:i:t=a tempo
8rB	2D\	8b/L]	(4f#\	p
(4A/	.	(8b/	.	.
.	.	8cc#/	4fn\	.
8G#/)	.	8dd/J	.	.
=17	=17	=17	=17	=17
4C#/	8C#\L	8dd#X/L	8e\)	.
!	!	!LO:TX:b:i:t=poco string.	!	!LO:HP:a
.	8e 8A\	8ee/	8re	<
4Cn/	8C\	8ee#X/	4re	.
.	8eJ 8A\	8ff#/J	.	[
*	*	*v	*v	*
!!LO:LB:g=original
=18	=18	=18	=18
!	!	!LO:TX:b:i:t=slentando	!
4BB/	8BB\L	8ff##X\L	.
!	!	!	!LO:HP:a
.	8e 8G#\	8gg#\	>
4AA#X/	8AA#\	8ddd#X\	.
.	8eJ 8c# 8Gn\	16eee\L)	.
.	.	(16eee\JJ	]
*v	*v	*	*
=19	=19	=19
*	*8va	*
*^	*	*
8rA	2AAn\	8eeee\)	.
*	*	*X8va	*
4e 4c# 4F#/	.	8r	.
!!LO:TX:a:i:t=a tempo
.	.	([4ee\	.
8e 8c# 8F#/	.	.	<
*v	*v	*	*
=20	=20	=20
8AAA^/	4ee\]	.
4e 4cn 4F#\	.	.
.	4ff#\	[[
8e 8c 8F#\	.	.
=21	=21	=21
8BBB^/	8gg#\)	.
4e 4B 4G#\	8r	.
!	!LO:TX:b:i:t=poco rit.	!
.	([4cc#X\	.
8g# 8B\	.	.
=22	=22	=22
*^	*	*
8rB	2BB\	4cc#\]	>
(4g# 4B 4A/	.	.	.
.	.	4dd#X\)	]]
8f# 8B 8A/)	.	.	.
!!LO:PB:g=original
=23	=23	=23	=23
*	*	*^	*
!!LO:TX:a:i:t=a tempo
8r	8EE\	8r	8ryy	.
(4B/	[4.E\	(4ee/	(8g#\	p
.	.	.	[4gn\	.
[8A#X/	.	8ff#/	.	.
=24	=24	=24	=24	=24
8A#/]	2E\_	8ddn/L	8g\]	.
!	!	!	!	!LO:HP:a
4An/	.	8cc#/	4f#\	<
.	.	8b/	.	.
[8G#/	.	8ee/J	[8fn\	.
=25	=25	=25	=25	=25
8G#/]	2E\]	8cc#/L	8f\]	.
4Gn/	.	8b/	4e\	[
.	.	8a/	.	.
!	!	!	!	!LO:HP:a
8F#/)	.	8cc#/J)	8d#X\)	>
*v	*v	*	*	*
=26	=26	=26	=26
!	!LO:TX:b:i:t=espr.	!	!
(8Fn\L	2g#X/	(8dn\L	.
8E\	.	8c#\	.
8D\	.	8B\	.
8F\J)	.	8d\J)	]]
=27	=27	=27	=27
*^	*	*	*
8r	[2EE^\	8r	8ryy	.
(8C#/L	.	(4e/	(8A\L	.
8BB/	.	.	8G#\	.
[8AA#X/J	.	8f#/	[8Gn\J	.
=28	=28	=28	=28	=28
8AA#/]	2EE\_	8d/L	8G\])	.
!	!	!	!	!LO:HP:a
4AAn/	.	8c#/	4F#\	<
.	.	8B/	.	.
[8GG#/	.	8e/J	[8Fn\	.
!!LO:LB:g=original
=29	=29	=29	=29	=29
8GG#/]	4EE\]	8c#/L	8F\]	.
4GGn/	.	8B/	4E\	.
.	4rCC	8A/	.	.
[<8FF#/)	.	8c#/J)	8D#X\	[
*v	*v	*	*	*
=30	=30	=30	=30
!	!LO:TX:b:i:t=pochissimo rit.	!	!
8FF#\]	8Dn</L	[[2F##X<^/	>
(<4FFn\	8C#</	.	.
.	8BB</	.	.
8FFFn\	[<8D</J	.	]]
*	*v	*v	*
=31	=31	=31
4EEE^<\)	8F##<L] 8D</]	p
!	!LO:TX:b:i:t=affrettando	!
.	(8G#</	.
4rCC	8A</	.
.	[8A#X</J	.
=32	=32	=32
(4An 4F#\	8A#X</L]	.
.	[8B</J	.
*	*Xtuplet	*
4G# 4Fn\	12B</L]	.
.	12c#\	<
.	12d\J	.
=33	=33	=33
*	*^	*
4G# 4E\	8d#X/L	8r	.
.	[8e/J	[4.e\	.
4A 4D\	8e/L]	.	.
.	[8e#X/J	.	.
=34	=34	=34	=34
4A#X 4C#\	8e#X/L]	4enX\]	.
.	[8f#/J	.	.
4An 4BB\)	12f#/L]	4d#X\	.
.	12g#~/	.	.
.	12a~/J	.	[[
*	*v	*v	*
!!LO:LB:g=original
=35	=35	=35
!!LO:TX:a:i:t=poco allarg.
8EE 8EEE/	8a#XL: 8dn: 8G#:/)	.
8r	(>[>8b/J	f <
[4d 4A 4F# [4E\	12b/L]	.
.	12cc#/	.
.	[>12dd/J)	[[
=36	=36	=36
8d] 8G# 8E\]	16dd\LL]	.
.	(16dd#X\	.
8r	16ddd\	.
!	!LO:TX:a:i:t=ad lib.	!
.	16ee\JJ	.
*ped	*	*
4EEE^>/	16ee#X\LL	.
.	16ff#\	.
!	!LO:TX:b:i:t=poco a poco accelerando e dim.	!
.	16ddd\	.
.	16ff##X\JJ	.
=37	=37	=37
2r	16gg#\LL	.
.	16aa\	.
.	16fff#\	.
.	16aa#X\JJ	.
.	16bb\LL	.
.	16bb#X\	.
.	16eee\	.
.	16ccc#\JJ	.
=38	=38	=38
*	*8va	*
2r	16ddd\LL	.
.	16ddd#X\	.
.	16dddd\	.
.	16eee\JJ	.
.	16eee#X\LL	.
.	16fff#\	.
.	16dddd\	.
.	16fff##X\JJ	.
=39	=39	=39
2r	16ggg#\LL	.
.	16aaa\	.
.	16ffff#\	.
.	16aaa#X\JJ	.
.	16bbb\LL	.
.	16bbb#X\	.
.	16eeee\	.
.	16cccc#\JJ	.
!!LO:LB:g=original
=40	=40	=40
2r	16dddd\LL	.
.	16dddd#X\	.
.	16eeee\	.
.	16cccc#\JJ	.
.	16eeee\LL	.
.	16ccccn\	.
.	16eeee\	.
.	16bbb\JJ	.
=41	=41	=41
16ryy	16eeee/LL)	.
*8va	*	*
16ddd#X>\LL	16ryy	.
16ryy	16eee/JJ	.
16dddn>\JJ	16ryy	.
16ryy	16eee/LL	.
16ccc#>\LL	16ryy	.
16ryy	16ee/JJ	.
16cccn>\JJ	16ryy	.
=42	=42	=42
16ryy	16eee/LL	.
16bb>\LL	16ryy	.
16ryy	16ee/JJ	.
16aa#X>\JJ	16ryy	.
16ryy	16eee/LL	.
16aan>\LL	16ryy	.
16ryy	16ee/JJ	.
16gg#>\JJ	16ryy	.
=43	=43	=43
16ryy	16eee/LL	.
16ggn>\LL	16ryy	.
16ryy	16ee/JJ	.
16ff#>\JJ	16ryy	.
16ryy	16eee/LL	.
16ffn>\LL	16ryy	.
16ryy	16ee/JJ	.
16ee>\JJ	16ryy	.
*X8va	*X8va	*
=44	=44	=44
*Xped	*	*
16ryy	16eee/LL	.
*ped	*	*
16dd#X>\LL	16ryy	.
16ryy	16ee/JJ	.
16ddn>\JJ	16ryy	.
16ryy	16ee/LL	.
16cc#>\LL	16ryy	.
16ryy	16e/JJ	.
*Xped	*	*
16ccn>\JJ	16ryy	.
!!LO:LB:g=original
=45	=45	=45
*ped	*	*
16ryy	16ee/LL	.
16b>\LL	16ryy	.
16ryy	16e/JJ	.
!	!LO:TX:b:i:t=poco rall.	!
16a#X>\JJ	16ryy	.
16ryy	16ee/LL	.
16an>\LL	16ryy	.
16ryy	16e/JJ	.
*Xped	*	*
16g#>\JJ	16ryy	.
=46	=46	=46
*ped	*	*
16ryy	16ee/LL	.
16gn>\LL	16ryy	.
16ryy	16e/JJ	>
*Xped	*	*
16f#>\JJ	16ryy	.
*ped	*	*
16ryy	16ee/LL	.
16fn>\LL	16ryy	.
16ryy	16e/JJ	.
*Xped	*	*
[<16e>\JJ	16ryy	]
=47	=47	=47
8e>\]	8ee/	.
4d#X>^\	8rb	.
.	[4e^/	.
N[8dn>\	.	.
=48	=48	=48
*^	*	*
*	*	*tuplet	*
!!LO:TX:a:i:t=a tempo
!LO:TX:b:i:t=ben cantado	!	!LO:TUP:b	!LO:DY:rj
16d/KLN]	2E 2AA\	24e/LL]	pp
.	.	(24e/	.
16rd	.	.	.
.	.	24cc#/J	.
(8c#/	.	24e#X/L	.
.	.	24f#/	.
.	.	24f##X/JJ	.
!	!	!LO:TUP:b	!
8B/	.	24g#/LL	.
.	.	24a/	.
.	.	24ee/J	.
[8A/J	.	24a#X/L	.
.	.	24b/	.
.	.	24b#X/JJ	.
!!LO:PB:g=original
=49	=49	=49	=49
*	*	*Xtuplet	*
8A/L]	(4BB\	24cc#\LL	.
.	.	24dd\	.
.	.	24ddd\	.
[8G#/J	.	24dd#X\	.
!	!	!	!LO:HP:t=poco a poco cresc.
.	.	24ee\	<
.	.	24ee#X\JJ	.
!LO:TUP:b:problem:klamra łukowa	!	!	!
12G#/L]	4D\)	24ff#\LL	.
.	.	24ggn\	.
12F#/	.	24eee\	.
.	.	24gg\	.
12E/J	.	24gg#X\	.
.	.	24aa\JJ	.
*v	*v	*	*
=50	=50	=50
*	*8va	*
*^	*	*
8a/)	8C#\	24gg#\LL	.
.	.	24aa\	.
.	.	24fff#\	.
8r	8r	24aa\	.
.	.	24aa#X\	.
.	.	24bb\JJ	.
([4A/	4r	24aa#\LL	.
.	.	24bb\	.
.	.	24eee\	.
.	.	24bb\	.
.	.	24bb#X\	.
.	.	24ccc#\JJ	.
=51	=51	=51	=51
4A/]	4FF#\	24bb#X\LL	.
.	.	24ccc#\	.
.	.	24bbbn\	.
.	.	24bb#\	.
.	.	24ccc#\	.
.	.	24ddd\JJ	.
4B/	4FFn\	24ccc#\LL	.
.	.	24ddd\	.
.	.	24aaa\	.
.	.	24ddd\	.
.	.	24ddd#X\	.
.	.	24eee\JJ	.
!!LO:LB:g=original
=52	=52	=52	=52
8c#/)	2EE\	24ddd#X\LL	.
.	.	24eee\	.
.	.	24cccc#\	.
8rA	.	24eee#X\	.
.	.	24fff#\	.
.	.	24gggn\JJ	.
([4F#/	.	24fff#\LL	.
.	.	24ggg\	.
.	.	24eeee\	.
.	.	24ggg\	.
.	.	24ggg#X\	.
.	.	24aaa\JJ	.
=53	=53	=53	=53
4F#/]	4DD\	24ggg#\LL	.
.	.	24aaa\	.
.	.	24ffff#\	.
.	.	24aaa\	.
.	.	24aaa#X\	.
.	.	24bbb\JJ	.
4G# 4E/	4D\	24aaa#\LL	.
.	.	24bbb\	.
.	.	24gggg#\	.
.	.	24bbb\	.
.	.	24bbb#X\	.
.	.	24cccc#\JJ)	.
=54	=54	=54	=54
.	.	(8qaaa/	.
*	*	*tuplet	*
!	!	!LO:TUP:a	!
8A:/L	4E: 4AA: 4CC#:\	(30aaaa\LL)	.
.	.	30gggg#\	.
.	.	30ggggn\	.
.	.	30ffff#\	.
8c#/J	.	.	.
.	.	30ffffn\	.
.	.	30eeee\	.
.	.	30dddd#X\	.
.	.	30ddddn\	.
[4e/	4r	.	.
.	.	30cccc#\	.
.	.	30ccccn\	.
.	.	30bbb\	.
.	.	30bbb-X\	.
.	.	30aaa\	.
.	.	30ggg#\	.
.	.	30gggn\JJ	.
!!LO:LB:g=original
=55	=55	=55	=55
!	!	!LO:TUP:a	!
4e/]	4A 4F# 4BBB\	30fff#\LL	.
.	.	30fffn\	.
.	.	30eee\	.
.	.	30ddd#X\	.
.	.	30dddn\	.
.	.	30ccc#\	.
.	.	30cccn\	.
.	.	30bb\	.
4d/)	4G# 4E 4EE\	.	.
.	.	30bb-X\	.
.	.	30aa\	.
.	.	30gg#\	.
.	.	30ggn\	.
.	.	30ff#\	.
.	.	30ffn\	.
.	.	30ee\JJ)	.
=56	=56	=56	=56
!	!	!LO:TUP:a	!
(8c#:/L	4E: 4AA:\	(30eeeeLL 30cccc#\	.
.	.	30ccccn\	.
.	.	30bbb\	.
.	.	30bbb-X\	.
8e/J	.	.	.
.	.	30aaa\	.
.	.	30ggg#\	.
.	.	30gggn\	.
.	.	30fff#\	.
[4g#/	4r	.	.
.	.	30fffn\	.
.	.	30eee\	.
.	.	30ddd#X\	.
.	.	30dddn\	.
.	.	30ccc#\	.
.	.	30cccn\	.
.	.	30bbnX\JJ	.
*v	*v	*	*
*	*X8va	*
=57	=57	=57
*^	*	*
!	!	!LO:TUP:a	!
4g#/]	4BB\	30aa#X\LL	.
.	.	30aan\	.
.	.	30gg#\	.
.	.	30ggn\	.
.	.	30ff#\	.
.	.	30ffn\	.
.	.	30ee\	.
.	.	30dd#X\	.
4f#:/)	4G#: 4D:\	.	.
.	.	30ddn\	.
.	.	30cc#\	.
.	.	30ccn\	.
.	.	30b\	.
.	.	30a#X\	.
.	.	30an\	.
.	.	30g#\JJ)	.
!!LO:LB:g=original
=58	=58	=58	=58
*	*	*Xtuplet	*
8e:/	8A: 8C#:\	(36eee\LLL	.
.	.	36ddd\	.
.	.	36ccc#\	.
.	.	36bb\	.
!	!	!	!LO:HP:t=cresc. sempre
.	.	36aa\	<
8r	8ryy	.	.
.	.	36gg#\	.
.	.	36ff#\	.
.	.	36ee\	.
.	.	36dd\JJJ)	.
!	!	!LO:TX:a:i:t=m.g.	!LO:DY:b
N[4cc#>\	4ryy	48cc#/LLL	sf
!	!	!LO:TX:b:i:t=m.d.	!
.	.	(48b#X/	.
.	.	48bn/	.
.	.	48a#X/	.
.	.	48an/	.
.	.	48g#/	.
.	.	48gn/	.
.	.	48f#/	.
.	.	48e#X/	.
.	.	48en/	.
.	.	48d#X/	.
.	.	48dn/JJJ)	.
=59	=59	=59	=59
*	*	*^	*
*Xtuplet	*	*	*	*
(44c#\LLL	4c#^>/	4cc#\N]	4ryy	.
44B#X\	.	.	.	.
44Bn\	.	.	.	.
44A#X\	.	.	.	.
44An\	.	.	.	.
44G#\	.	.	.	.
44Gn\	.	.	.	.
44F#\	.	.	.	.
44E#X\	.	.	.	.
44En\	.	.	.	.
44D#X\JJJ	.	.	.	.
32Dn/LLL	4ryy	8rgg	[4b\	.
32C#/	.	.	.	.
32BB#X/	.	.	.	.
32BBn/	.	.	.	.
32AA#X/	.	8bb 8gg# 8ee#X/	.	.
32AAn/	.	.	.	.
32GG#/	.	.	.	.
32GGn/JJJ)	.	.	.	.
*v	*v	*	*	*
!!LO:LB:g=original
=60	=60	=60	=60
!	!LO:TX:b:i:t=un poco più moto	!	!
(24FF#/LL	8r	8b\]	.
24EE#X/	.	.	.
24FF#/	.	.	.
!	!	!	!LO:DY:b
24GGn/	4aa 4cc# 4a\	8ryy	mf
24FF#/	.	.	.
24GG/JJ	.	.	.
24GG#X/LL	.	4ryy	.
24FF##X/	.	.	.
24GG#/	.	.	<
24AA/	[8gg# [8cc# [8g#\	.	.
24GG#/	.	.	.
24AA/JJ	.	.	.
*	*v	*v	*
=61	=61	=61
24AA#X/LL	8gg#] 8cc#] 8g#\]	.
24GG##X/	.	.
24AA#/	.	.
24BB/	8ff#L 8dd 8f#~\	.
24AA#/	.	.
24BB/JJ	.	.
24Cn/LL	8ee 8cc# 8e~\	[
24BB/	.	.
24C/	.	.
24C#X/	8ddJ 8b 8d~\	.
24BB#X/	.	.
24C#/JJ)	.	.
=62	=62	=62
*^	*^	*
N(36D/LLL	4D 4DD\	4cc# 4g# 4c#^>/	36ryy	.
36E/	.	.	36ryy	.
36G#/	.	.	36ryy	.
36c#/JJJ	.	.	36ryy	.
36ryy	.	.	36e/LLL	.
36ryy	.	.	36g#/	.
36ryy	.	.	36cc#/	.
36ryy	.	.	36ee/	.
36ryy	.	.	36eee/JJJN)	.
16ryy	4b> 4B>^\	4ryy	16rbb	.
!	!	!LO:TX:t=P:problem:łuk	!	!
48ryy	.	.	48gg#LLL 48ff#/	.
48ryy	.	.	48ee/	.
48ryy	.	.	48b/JJJ	.
48g#>LLL 48f#>\	.	.	48ryy	.
48e>\	.	.	48ryy	.
48B\JJJ	.	.	48ryy	.
48G#LLL 48F#/	.	.	48ryy	.
48E/	.	.	48ryy	.
48BB/JJJ	.	.	48ryy	.
*	*	*v	*v	*
*v	*v	*	*
!!LO:PB:g=original
=63	=63	=63
*	*^	*
!LO:TX:b:Bi:t=8	!	!	!LO:DY:t=%s con colore
4DDDyy 4DD/	8r	4ryy	ff
.	8bL 8B/	.	.
4Fn 4AA 4DD/	8cc# 8c#/	4a\	.
.	8ddJ 8d/	.	.
*	*v	*v	*
=64	=64	=64
4E 4AA 4CC#/	8dd#X 8a 8d#X/	.
.	4ee 4a 4e/	.
8BBL 8BBB^/	.	.
8AAJ 8AAA^/	[8ee#X [8cc# [8a [8e#X/	.
=65	=65	=65
8DL 8DD^\	8ee#]L 8cc#] 8a] 8e#\]	.
8dJ 8A 8F#\	8ff# 8dd 8a 8f#^\	.
!	!	!LO:DY:t=allarg. e sempre più %s
8C#L 8CC#^/	8gg# 8ff# 8dd 8g#^\	f
8CnJ 8CCn^/	8aaJ 8ff# 8dd 8a^\	.
=66	=66	=66
*^	*	*
8rB	4BB 4BBB^\	8aa#X 8ff# 8dd#X 8a#X^\	.
8d#X 8A 8F#/	.	4bb 4aan 4dd# 4b^\	.
8rB	4FFn 4FFFn^\	.	.
8d# 8A 8Fn/	.	[8bb#X [<8aa [8dd# [8b#X\	.
*v	*v	*	*
=67	=67	=67
*^	*	*
!LO:TX:b:Bi:t=8	!	!	!
8EE 8EEEyy/L	4EE\	8bb#]L 8aa] 8dd#] 8b#\]	.
8e 8A 8E/	.	8ccc# 8aa 8cc#\	.
!LO:TX:b:Bi:t=8	!	!	!
8DD# 8DDD#Xyy/	4DD#\	8ggg# 8fff# [>8bb#X 8gg#\	.
8aJ 8f# 8B#X 8A/	.	8aaaJ 8fff# 8bb#] 8aa\	.
*v	*v	*	*
!!LO:LB:g=original
=68	=68	=68
*	*8va	*
!LO:TX:b:Bi:t=8	!	!
8DDn 8DDDnyy/	8aaa\ 8bbb\ 8dddd\ 8ffff#X\ 8aaaa\	.
*	*X8va	*
*	*cue	*
!LO:TX:b:i:t=brillante	!LO:TX:t=P:problem:rscale 2 - błąd wyświetlania	!
8ryy	(296%3A<\LLLL	.
.	296%3d\	.
.	296%3f#\	.
.	296%3g#\JJJJ	.
.	296%3a/LLLL	.
.	296%3dd/	.
.	296%3ff#/	.
.	296%3gg#/	.
.	296%3aa/JJJJ	.
*	*8va	*
.	296%3ddd\LLLL	.
.	296%3fff#\	.
.	296%3ggg#\JJJJ	.
.	296%3aaa/LLLL	.
4ryy	.	.
.	296%3dddd/	.
.	296%3ffff#/	.
.	296%3gggg#/JJJJ	.
.	296%3aaaa/LLLL	.
.	296%3gggg#/	.
.	296%3ffff#/	.
.	296%3dddd\	.
.	296%3aaa/JJJJ	.
.	296%3ggg#\LLLL	.
.	296%3fff#\	.
.	296%3ddd\	.
.	296%3aa/JJJJ	.
*	*X8va	*
.	296%3gg#/LLLL	.
.	296%3ff#/	.
.	296%3dd/	.
.	296%3a/JJJJ	.
.	296%3g#\LLLL	.
.	296%3f#\	.
.	296%3d\	.
.	296%3A<\JJJJ	.
.	296%3G#</LLLL	.
.	296%3F#</	.
.	296%3D</	.
.	296%3AA</JJJJ)	.
*	*Xcue	*
=69	=69	=69
*	*^	*
!!LO:TX:a:i:t=a tempo
!LO:TX:b:Bi:t=8	!	!	!LO:DY:t=sempre %s
4DD 4DDDyy/	8r	4ryy	ff
.	4a 4A/	.	.
4Fn 4AA 4DD/	.	4fn 4B\	.
.	8b 8B/	.	.
=70	=70	=70	=70
4E 4AA 4EE/	8cc# 8a 8e 8c#/	4ryy	.
.	4f#X 4F#X/	.	.
8DD#XL 8DDD#X/	.	8c#\L	.
8DDnJ 8DDDn/	8g# 8f# 8G#/	8B#X\J	.
*	*v	*v	*
!!LO:LB:g=original
=71	=71	=71
*	*^	*
!LO:TX:b:i:rj:t=con 8::dur=5e:ext=cd:problem:text with extention lines	!LO:TX:b:i:t=allarg.	!	!
8CC# 8CCC#yy\	8a 8e 8A/	4ryy	.
8rDD	4e 4E</	.	.
4CCn 4CCCnyy\	.	4d#X 4A<\	.
.	8e#X 8E#X</	.	.
*	*v	*v	*
=72	=72	=72
*ped	*	*
8BBB 8BBBByy\	8f# 8dn 8A< 8F#</	.
*Xped	*	*
!	!	!LO:HP:t=dim. molto
8r	4ff#;\	>
*ped	*	*
4r	.	.
!!LO:TX:a:i:t=senza rigore del tempo
.	([8ff#\	.
=73	=73	=73
16qqEEE/LL	.	.
!	!LO:TX:b:i:t=arpeggiato lento	!
[[16qqEE/	.	.
*	*^	*
[16qqBB/	.	.	.
[16qqG#/JJ	.	.	.
.	.	[<16qqd\LL	.
.	.	[<16qqg#\JJ	.
4G#]] 4BB]] 4EE/]]	8ff#/L]	4g#] 4d\]	.
.	8ee/	.	.
4r	8dd/	4r	.
*Xped	*	*	*
.	[8ff#;/J)	.	.
=74	=74	=74	=74
*^	*	*	*
*ped	*	*	*	*
8AAA/	8ryy	8ff#/]	8r	.
*Xped	*	*	*	*
!!LO:TX:a:i:t=a tempo
(8f#/L	[4.A\	(4aa/	8dd\L	pp <
8e#X/	.	.	8cc#\	.
[8en/J	.	8bb/	[8ccn\J	.
.	.	.	.	[
=75	=75	=75	=75	=75
8e/L]	2A\_	8ggn/L	8cc\]	.
8d#X/	.	8ff#/	4b\	.
8dn/	.	8ee/	.	.
[8c#/J	.	8aa/J	[8b-X\	.
=76	=76	=76	=76	=76
8c#/]	2A\]	8ff#/L	8b-\]	.
4cn/	.	8ee/	4a\	.
.	.	8dd/	.	.
8B/)	.	8ff#/J)	8g#\	.
*v	*v	*	*	*
!!LO:LB:g=original
=77	=77	=77	=77
(8B-X\L	2cc#/	(8gn\L	.
8A\	.	8f#\	.
8Gn\	.	8e\	.
8B-\J)	.	8g\J)	.
=78	=78	=78	=78
*^	*	*	*
8rF	[2AA\	8r	8ryy	.
!	!	!LO:TX:a:i:t=espr.	!	!
8F#/L	.	(4a/	8d\L	.
8E#X/	.	.	8c#\	.
[8En/J	.	8b/	[8cn\J	.
=79	=79	=79	=79	=79
8E/L]	2AA\_	8gn/L	8c\]	.
8D#X/	.	8f#/	4B\	.
8Dn/	.	8e/	.	.
[8C#/J	.	8a/J	[8B-X\	.
=80	=80	=80	=80	=80
!	!	!	!	!LO:HP:t=poco cresc.
8C#/]	4AA\]	8f#/L	8B-\]	<
4Cn/	.	8e/	4A\	.
.	4rEE	8d/	.	.
[8BB/	.	8f#/J)	8G#\	.
*v	*v	*	*	*
=81	=81	=81	=81
!!LO:TX:a:i:t=pochissimo rit.
8BB/]	2cn^/	(8Gn\L	>
4AA#X/	.	8F#\	.
.	.	8E\	.
8AAA#X/	.	8G\J)	]
=82	=82	=82	=82
!!LO:TX:a:i:t=a tempo
8BBB/	4rff	8rf	.
4A 4BB\	.	(8g#X\L	pp
.	(8.b/L	8f#\	.
8A 8BB\	.	8e\J)	.
.	16cc#/Jk)	.	.
!!LO:LB:g=original
=83	=83	=83	=83
8BBB/	(4cc#/	(8e\L	.
4A 4BB\	.	[8d#X\J	.
.	4dd#X/	12d#\L]	.
.	.	12c#\	.
8A 8BB\	.	.	.
.	.	12B\J)	.
*	*v	*v	*
=84	=84	=84
8EEE/	16ee/LL)	.
.	(16e/	.
(<8c#\L	16cc#/	.
.	16f#/JJ	.
8B\	16g#\LL	.
.	16a\	.
[8A\J	16ee\	.
.	16b\JJ	.
=85	=85	=85
!	!LO:TX:b:i:t=poco a poco accelerando e rinforzando	!
(8qE/	.	.
*^	*	*
4f#/)	8A\L]	16cc#\LL	.
.	.	16dd\	.
.	[>8G#\J	16ddd\	.
.	.	16ee\JJ	.
(8qD/	.	.	.
4g#/)	12G#\L]	16ee#X\LL	.
.	.	16ff#\	.
.	12F#\	.	.
.	.	16eee\	.
.	12E\J)	.	.
.	.	16ff##X\JJ	.
=86	=86	=86	=86
(>8qC#/	.	.	.
8a\)	4ryy	16gg#\LL	.
.	.	16aa\	.
8r	.	16fff#\	.
.	.	16aa#X\JJ	.
[4A/	4r	16bb\LL	.
.	.	16bb#X\	.
.	.	16eee\	.
.	.	16ccc#\JJ	.
*v	*v	*	*
!!LO:PB:g=original
=87	=87	=87
*	*8va	*
*^	*	*
4A/]	4FF#\	16bb#X\LL	.
.	.	16ccc#\	.
.	.	16bbbn\	.
.	.	16ccc#\JJ	.
4B:/	4FFn:\	16ddd\LL	.
.	.	16ddd#X\	.
.	.	16aaa\	.
.	.	16ddd#\JJ	.
=88	=88	=88	=88
8c#:/	8EE:\	16eee\LL	.
.	.	16eee#X\	.
8r	8ryy	16cccc#\	.
.	.	16eee#\JJ	.
[4F#/	4r	16fff#\LL	.
.	.	16gggn\	.
.	.	16eeee\	.
.	.	16ggg#X\JJ	.
=89	=89	=89	=89
4F#/]	4DD\	16aaa\LL	.
.	.	16aaa#X\	.
.	.	16ffff#\	.
.	.	16bbb\JJ	.
4G# 4E/	4D\	16bbb#X\LL	.
.	.	16cccc#\	.
.	.	16gggg#\	.
.	.	16bbbn\JJ)	.
=90	=90	=90	=90
*	*	*^	*
8A:/L	4E: 4AA: 4CC#:\	(4aaaa/	16aaaa\LL	.
.	.	.	16gggg#\	.
8c#/J	.	.	16ggggn\	.
.	.	.	16ffff#\JJ	.
[4e\	4ryy	4aaaa/	16ffff\LL	.
.	.	.	16eeee\	.
.	.	.	16dddd#X\	.
.	.	.	16ddddn\JJ	.
*v	*v	*	*	*
!!LO:LB:g=original
=91	=91	=91	=91
(<2e\]	4eeee/	16cccc#\LL	.
.	.	16ccccn\	.
.	.	16bbb\	.
.	.	16bbb-X\JJ	.
.	4cccc/	16aaa\LL	.
.	.	16ggg#\	.
.	.	16gggn\	.
.	.	16fff#\JJ	.
*clefG2	*	*	*
=92	=92	=92	=92
*^	*	*	*
[8a/L)	2e\	4aaa/	16fffn\LL	.
.	.	.	16eee\	.
[>8cc#J 8a/_	.	.	16ddd#X\	.
.	.	.	16dddn\JJ	.
[>4ee 4cc#_< 4a/_<	.	4ggg#/	16ccc#\LL	.
.	.	.	16cccn\	.
.	.	.	16bb\	.
.	.	.	16bb-X\JJ	.
*v	*v	*	*	*
*	*v	*v	*
*	*X8va	*
=93	=93	=93
*^	*^	*
8ee/]	8cc#] 8a\]	4ccc#/	16aa\LL	.
.	.	.	16gg#\	.
8r	8ryy	.	16ggn\	.
.	.	.	16ff#\JJ	.
4r	4ryy	4aa/	16ffn\LL	.
.	.	.	16ee\	.
.	.	.	16dd#X\	.
.	.	.	16ddn\JJ	.
*v	*v	*	*	*
=94	=94	=94	=94
!	!LO:TX:b:i:t=accelerando e cresc.	!	!
2r	4ee/	16cc#\LL	.
.	.	16ccn\	.
.	.	16b\	.
.	.	16b-X\JJ	.
.	4cc#X/	16a\LL	.
.	.	16g#\	.
.	.	16gn\	.
.	.	16f#\JJ	.
*clefF4	*	*	*
!!LO:LB:g=original
=95	=95	=95	=95
!	!LO:TX:b:i:t=sempre	!	!
2rBB	4a/	16fn\LL	.
.	.	16e\	.
.	.	16d#X\	.
.	.	16dn\JJ	.
!	!LO:TX:a:t=P:problem:mixed beam	!	!
.	4e/	32c#\LLL	.
.	.	32B#X</	.
.	.	32Bn</	.
.	.	32A#X</	.
.	.	32An</	.
.	.	32G#</	.
.	.	32Gn</	.
.	.	32F#</JJJ)	.
*	*v	*v	*
=96	=96	=96
*ped	*	*
8DDD\L	4Fn<^/	ff
!LO:TX:a:i:t=ad lib.	!	!
8DD\J	.	.
16BB-X\LL	8ryy	.
16F#\JJ	.	.
8ryy	16B-X/LL	.
.	16fn/JJ	.
=97	=97	=97
*Xped	*	*
!	!LO:TX:b:i:t=m.g.	!LO:HP:t=dim. molto
4.ffn>\;	4.ryy	>
*ped	*	*
!	!LO:TX:a:i:t=m.d.	!
8ryy	([8ffny\	.
=98	=98	=98
16qqEEE/LL	.	.
[[16qqEE/	.	.
*	*^	*
[16qqBB/	.	.	.
[16qqG#/JJ	.	.	.
.	.	[[<16qqd\LL	.
.	.	[<16qqg#\JJ	.
4G#] 4BB] 4EE/]]	8ff/L]	4g#] 4d\]]	.
.	8ee/	.	.
4r	8dd/	4r	.
*Xped	*	*	*
.	8ffn/J)	.	.
*	*v	*v	*
=99	=99	=99
!!LO:TX:a:i:t=a tempo
!	!	!LO:DY:t=%s tranquillo
4AAA^/	16r	pp
.	(16e/LL	.
.	16cc#/	.
.	16f#X/JJ	.
[4e 4c# 4E\	16g#\LL	.
.	16a\	.
.	16ee\	.
.	16b\JJ	.
!!LO:LB:g=original
=100	=100	=100
(16e>\LL]	16cc#/LL	.
16f#>\	16ee/	.
16g#>\	16ccc#/	.
16a>\JJ	16ff#/JJ	.
16b>\LL	16gg#/LL	.
16cc#>\	16aa/	.
!	!LO:TX:b:i:t=poco accelerando	!
16dd>\	16eee/	.
16dd#X>\JJ	16bb/JJ	.
=101	=101	=101
*8va	*8va	*
16ee>\LL	16ccc#/LL	.
16ff#>\	16eee/	.
16gg#>\	16cccc#/	.
16aa>\JJ	16fff#/JJ	.
16bb>\LL	16ggg#/LL	.
16ccc#>\	16aaa/	.
16ddd>\	16eeee/	.
16ddd#X>\JJ	16bbb/JJ	.
=102	=102	=102
16eee>\LL	16cccc#/LL	.
16fff#>\	16eeee/	.
16gggn>\	16aaaa/	.
16ggg#X>\JJ	16bbb/JJ	.
16aaa>\LL	16cccc#/LL	.
16bbb>\	16eeee/	.
16cccc#>\	16aaaa/	.
16eee>\JJ	16bbb/JJ	.
=103	=103	=103
16aaa>\LL	16cccc#/LL	.
16bbb>\	16eeee/	.
16cccc#>\	16aaaa/	.
16eee>\JJ	16bbb/JJ	.
16aaa>\LL	16cccc#/LL	.
16bbb>\	16eeee/	.
16cccc#>\	16aaaa/	.
16eee>\JJ	16bbb/JJ	.
!!LO:LB:g=original
=104	=104	=104
!	!LO:TX:b:i:t=pochissimo rall.	!
16aaa>\LL	16cccc#/LL	.
16bbb>\	16eeee/	.
16cccc#>\	16aaaa/	.
16eee>\JJ	16bbb/JJ	.
16aaa>\LL	16cccc#/LL	.
16bbb>\	16eeee/	.
16cccc#>\	16aaaa/	.
16eee>\JJ	16bbb/JJ	.
=105	=105	=105
*^	*^	*
!	!	!LO:TX:b:i:t=espr.	!	!
8aaa>\)	4ryy	8cccc#/)	8ryy	.
*X8va	*	*X8va	*	*
!!LO:TX:a:i:t=a tempo
8r	.	(8cc#/L	(8cc#\L	.
4c#:/	4E: 4AA:\	8.ee:/	8b:\	.
.	.	.	8a\J)	.
.	.	16ff#/Jk)	.	.
=106	=106	=106	=106	=106
4B:/	4E: 4AA:\	(4ff#:/	(8a:\L	.
.	.	.	8g#\J)	>
!!LO:TX:a:i:t=poco rall.
4d::/	4E:: 4AA::\	8bb:: 8ee::/)	(12g#::\L	.
.	.	.	12f#\	.
.	.	8rgg	.	.
.	.	.	12e\J)	]
*v	*v	*	*	*
=107	=107	=107	=107
*ped	*	*	*
!	!LO:TX:a:i:t=m.g.	!	!
4c#:: 4E:: 4AA::\	4aa::/	4ee:: 4a:: 4e::\	pp
[4AAA^/	4r	4ryy	.
=108	=108	=108	=108
*^	*	*	*
4e:: 4c#:: 4E::/	4AAA\]	4aaa::/	4aa:: 4ee:: 4cc#:: 4a::\	.
4r	4ryy	4r	4ryy	.
*Xped	*	*	*	*
*v	*v	*	*	*
*	*v	*v	*
==	==	==
*-	*-	*-
!!!system-decoration: {(g1)}
!!!RDF**kern: i = editorial accidental
!!!RDF**kern: > = above
!!!RDF**kern: < = below
!!!RDF**kern: N = linked
!!!RDF**dynam: > = "dim.", fontstyle= "italic"
!!!ENC: Berenika Jozajtis
!!!EED: Katarzyna Serwa
!!!END: 2023-10-22
!!!EEV: 2023-11-20
